Sources/FrostedUI/Resources/Icons.xcassets/facebookFilledSize16.imageset/facebook-filled-size-16.svg

<svg
  width="16"
  height="16"
  viewBox="0 0 16 16"
  fill="none"
  xmlns="http://www.w3.org/2000/svg"
  data-fui-icon="true"
>
  <path
    d="M6.38934 14.4707V10.0374H5.01341V8.00001H6.38934V7.12221C6.38934 4.85297 7.41598 3.80223 9.64265 3.80223C10.0642 3.80223 10.7919 3.88482 11.0908 3.96742V5.81297C10.9334 5.79705 10.6586 5.7889 10.32 5.7889C9.22671 5.7889 8.80525 6.20223 8.80525 7.27961V8.00001H10.9842L10.6108 10.0371H8.80825V14.6185C12.1091 14.2186 14.6666 11.408 14.6666 8.00001C14.6666 4.31816 11.6818 1.33334 7.99998 1.33334C4.31813 1.33334 1.33331 4.31816 1.33331 8.00001C1.33331 11.1266 3.4854 13.7502 6.38934 14.4707Z"
    fill="currentColor"
  />
</svg>

<svg xmlns="http://www.w3.org/2000/svg" width="16" height="16" fill="none" data-fui-icon="true" viewBox="0 0 16 16"><path fill="currentColor" d="M6.39 14.47v-4.433H5.012V8H6.39v-.878c0-2.269 1.027-3.32 3.254-3.32.421 0 1.149.083 1.448.165v1.846a9 9 0 0 0-.771-.024c-1.093 0-1.515.413-1.515 1.49V8h2.18l-.374 2.037H8.808v4.581a6.667 6.667 0 1 0-2.419-.148"/></svg>
